!!!COA: des Prez, Josquin
!!!CDT: ~1450-1521/08/27
!!!OTL: Celorum decus Maria
!!!AGN: Motet
!!!SCT: NJE 24.1
!!!SCA: New Josquin Edition 24.1
!!!voices: 9
**kern	**kern	**kern	**kern	**kern	**kern	**kern	**kern	**kern
*part9	*part8	*part7	*part6	*part5	*part4	*part3	*part2	*part1
*staff9	*staff8	*staff7	*staff6	*staff5	*staff4	*staff3	*staff2	*staff1
*Ivox	*Ivox	*Ivox	*Ivox	*Ivox	*Ivox	*Ivox	*Ivox	*Ivox
*I"Bassus2	*I"Bassus1	*I"Tenor3	*I"Tenor2	*I"Tenor1	*I"Altus2	*I"Altus1	*I"Superius2	*I"Superius1
*I'B2	*I'B1	*I'T3	*I'T2	*I'T1	*I'A2	*I'A1	*I'S2	*I'S1
*clefF4	*clefF4	*clefGv2	*clefGv2	*clefGv2	*clefGv2	*clefGv2	*clefG2	*clefG2
*k[b-]	*k[b-]	*k[b-]	*k[b-]	*k[b-]	*k[b-]	*k[b-]	*k[b-]	*k[b-]
*d:	*d:	*d:	*d:	*d:	*d:	*d:	*d:	*d:
*M2/1	*M2/1	*M2/1	*M2/1	*M2/1	*M2/1	*M2/1	*M2/1	*M2/1
*met(C|)	*met(C|)	*met(C|)	*met(C|)	*met(C|)	*met(C|)	*met(C|)	*met(C|)	*met(C|)
=1	=1	=1	=1	=1	=1	=1	=1	=1
!	!	!	!	!	!	!	!	!LO:TX:Z=8:t=NB&colon; several errors in the source (VerA 218) have been conjecturally emended.
!	!	!	!	!	!	!LO:TX:Z=8:t=A1&colon; only mm. 1-83 extant [?]	!	!LO:TX:Z=32:t=Based on "Comment peult avoir joye"
0r	0r	0r	0r	0r	1F	0r	0r	0r
.	.	.	.	.	1c	.	.	.
=2	=2	=2	=2	=2	=2	=2	=2	=2
0r	0r	0r	1F	0r	4c	0r	0r	0r
.	.	.	.	.	4B-	.	.	.
.	.	.	.	.	4A	.	.	.
.	.	.	.	.	4G	.	.	.
.	.	.	1c	.	1A	.	.	.
=3	=3	=3	=3	=3	=3	=3	=3	=3
0r	0r	0r	4c	0r	1F	0r	0r	0r
.	.	.	4B-	.	.	.	.	.
.	.	.	4A	.	.	.	.	.
.	.	.	4G	.	.	.	.	.
.	.	.	1A	.	4F	.	.	.
.	.	.	.	.	4E	.	.	.
.	.	.	.	.	4D	.	.	.
.	.	.	.	.	4C	.	.	.
=4	=4	=4	=4	=4	=4	=4	=4	=4
0r	0r	0r	2F	0r	1D	0r	0r	0r
.	.	.	1f	.	.	.	.	.
.	.	.	.	.	[1B-	.	.	.
.	.	.	[2d	.	.	.	.	.
=5	=5	=5	=5	=5	=5	=5	=5	=5
0r	0r	0r	2d]	0r	2B-]	0r	0r	0r
.	.	.	4c	.	4A	.	.	.
.	.	.	4B-	.	4G	.	.	.
.	.	.	2c	.	2A	.	.	.
.	.	.	[2d	.	[2B-	.	.	.
=6	=6	=6	=6	=6	=6	=6	=6	=6
0r	0r	0r	4d]	0r	4B-]	0r	0r	0r
.	.	.	4c	.	4A	.	.	.
.	.	.	4B-	.	1A	.	.	.
.	.	.	4A	.	.	.	.	.
.	.	.	1B-	.	.	.	.	.
.	.	.	.	.	2G	.	.	.
=7	=7	=7	=7	=7	=7	=7	=7	=7
1FF	0r	0r	2A	0r	2A	0r	0r	0r
.	.	.	1c	.	2F	.	.	.
[1C	.	.	.	.	2E	.	.	.
.	.	.	[2A	.	[2c	.	.	.
=8	=8	=8	=8	=8	=8	=8	=8	=8
1C]	1FF	0r	2A]	0r	2c]	0r	0r	0r
.	.	.	4G	.	4B-	.	.	.
.	.	.	4F	.	4A	.	.	.
1C	[1C	.	[1E	.	2G	.	.	.
.	.	.	.	.	[2c	.	.	.
=9	=9	=9	=9	=9	=9	=9	=9	=9
1AA	1C]	0r	1E]	0r	2c]	0r	0r	0r
.	.	.	.	.	2.A	.	.	.
1FF	1C	.	[1c	.	.	.	.	.
.	.	.	.	.	4F	.	.	.
.	.	.	.	.	[2f	.	.	.
=10	=10	=10	=10	=10	=10	=10	=10	=10
1C	1AA	0r	1c]	0r	4f]	0r	0r	0r
.	.	.	.	.	4e	.	.	.
.	.	.	.	.	4e	.	.	.
.	.	.	.	.	8dL	.	.	.
.	.	.	.	.	8eJ	.	.	.
1F	1FF	.	1A	.	2f	.	.	.
.	.	.	.	.	[2A	.	.	.
=11	=11	=11	=11	=11	=11	=11	=11	=11
4F	0BB-	0r	1d	0r	2A]	0r	0r	0r
4E	.	.	.	.	.	.	.	.
4D	.	.	.	.	4G	.	.	.
4C	.	.	.	.	4F	.	.	.
1D	.	.	1d	.	2.G	.	.	.
.	.	.	.	.	8AL	.	.	.
.	.	.	.	.	8GJ	.	.	.
=12	=12	=12	=12	=12	=12	=12	=12	=12
0E	0AA	0r	0c	0r	0A	0r	0r	0r
=13	=13	=13	=13	=13	=13	=13	=13	=13
1r	1r	0r	1r	0r	1r	0r	0r	0r
1G	1GG	.	1B-	.	1d	.	.	.
=14	=14	=14	=14	=14	=14	=14	=14	=14
1E	1C	0r	1G	0r	1e	0r	0r	0r
1E	1C	.	2G	.	2.c	.	.	.
.	.	.	[2c	.	.	.	.	.
.	.	.	.	.	4d	.	.	.
=15	=15	=15	=15	=15	=15	=15	=15	=15
1C	1AA	0r	4c]	0r	2e	0r	0r	0r
.	.	.	4B-	.	.	.	.	.
.	.	.	4A	.	1f	.	.	.
.	.	.	4G	.	.	.	.	.
1D	1BB-	.	2F	.	.	.	.	.
.	.	.	[2G	.	[2d	.	.	.
=16	=16	=16	=16	=16	=16	=16	=16	=16
0BB-	0GG	0r	2G]	0r	2d]	0r	0r	0r
.	.	.	1F	.	1B-	.	.	.
.	.	.	2E	.	4A	.	.	.
.	.	.	.	.	4G	.	.	.
=17	=17	=17	=17	=17	=17	=17	=17	=17
1.C	[0FF	0r	2F	1r	[0A	0r	0r	1f
.	.	.	2.A	.	.	.	.	.
.	.	.	.	1F	.	.	.	1cc
.	.	.	4B-	.	.	.	.	.
[2AA	.	.	2c	.	.	.	.	.
=18	=18	=18	=18	=18	=18	=18	=18	=18
4AA]	0FF]	1F	2F	1c	0A_	0r	0r	4cc
4BB-	.	.	.	.	.	.	.	4b-
2C	.	.	1f	.	.	.	.	4a
.	.	.	.	.	.	.	.	4g
2AA	.	[1c	.	4c	.	.	.	1a
.	.	.	.	4B-	.	.	.	.
2FF	.	.	4e	4A	.	.	.	.
.	.	.	4d	4G	.	.	.	.
=19	=19	=19	=19	=19	=19	=19	=19	=19
1C	2.FF	0c]	1c	1A	0A]	1F	0r	2f
.	.	.	.	.	.	.	.	2.cc
.	4GG	.	.	.	.	.	.	.
[1FF	4AA	.	1r	1F	.	1c	.	.
.	4BB-	.	.	.	.	.	.	4b-
.	2C	.	.	.	.	.	.	4a
.	.	.	.	.	.	.	.	4g
=20	=20	=20	=20	=20	=20	=20	=20	=20
0FF]	2FF	1A	1C	2r	1r	4c	1f	1f
.	.	.	.	.	.	4B-	.	.
.	1F	.	.	1c	.	4A	.	.
.	.	.	.	.	.	4G	.	.
.	.	1F	1C	.	[1c	2A	[1cc	1r
.	2F	.	.	[2c	.	[2f	.	.
=21	=21	=21	=21	=21	=21	=21	=21	=21
0C	1C	0G	1r	2c]	1c]	2f]	0cc]	1g
.	.	.	.	4B-	.	4e	.	.
.	.	.	.	4A	.	4d	.	.
.	1r	.	[1C	1G	1c	2.e	.	1g
.	.	.	.	.	.	8dL	.	.
.	.	.	.	.	.	8eJ	.	.
=22	=22	=22	=22	=22	=22	=22	=22	=22
1FF	1C	0A	1C]	0F	1r	1f	1a	2.cc
.	.	.	.	.	.	.	.	4b-
1F	1FF	.	1A	.	2F	1r	1f	4a
.	.	.	.	.	.	.	.	4g
.	.	.	.	.	[2c	.	.	[2f
=23	=23	=23	=23	=23	=23	=23	=23	=23
1C	0C	0r	0G	1r	2c]	[0c	0g	2f]
.	.	.	.	.	4B-	.	.	4e
.	.	.	.	.	4A	.	.	4d
2r	.	.	.	1c	2G	.	.	2.e
[2C	.	.	.	.	2c	.	.	.
.	.	.	.	.	.	.	.	8dL
.	.	.	.	.	.	.	.	8eJ
=24	=24	=24	=24	=24	=24	=24	=24	=24
2C]	0FF	0r	0F	2.c	0A	0c]	0a	0f
2.F	.	.	.	.	.	.	.	.
.	.	.	.	4B-	.	.	.	.
.	.	.	.	4A	.	.	.	.
4E	.	.	.	4G	.	.	.	.
4D	.	.	.	4F	.	.	.	.
4C	.	.	.	4E	.	.	.	.
=25	=25	=25	=25	=25	=25	=25	=25	=25
4BB-	1r	0B-	0r	4D	0r	0r	0r	0g
4AA	.	.	.	4C	.	.	.	.
4GG	.	.	.	1F	.	.	.	.
4FF	.	.	.	.	.	.	.	.
1GG	1BB-	.	.	.	.	.	.	.
.	.	.	.	2E	.	.	.	.
=26	=26	=26	=26	=26	=26	=26	=26	=26
0FF	1C	1A	0C	0F	2r	0c	0r	0a
.	.	.	.	.	1c	.	.	.
.	1AA	1F	.	.	.	.	.	.
.	.	.	.	.	[2f	.	.	.
=27	=27	=27	=27	=27	=27	=27	=27	=27
1r	0GG	0G	0G	0r	2f]	1B-	0b-	0r
.	.	.	.	.	4e	.	.	.
.	.	.	.	.	4d	.	.	.
1G	.	.	.	.	1e	1G	.	.
=28	=28	=28	=28	=28	=28	=28	=28	=28
1D	0D	0F	0r	1F	1f	2A	1a	2r
.	.	.	.	.	.	2.F	.	2.a
1F	.	.	.	1A	1d	.	1f	.
.	.	.	.	.	.	4G	.	4g
.	.	.	.	.	.	4A	.	[2f
.	.	.	.	.	.	4B-	.	.
=29	=29	=29	=29	=29	=29	=29	=29	=29
0C	1E	0r	0C	0G	0c	1c	0g	2f]
.	.	.	.	.	.	.	.	4e
.	.	.	.	.	.	.	.	4d
.	1E	.	.	.	.	2G	.	2.e
.	.	.	.	.	.	[2c	.	.
.	.	.	.	.	.	.	.	8dL
.	.	.	.	.	.	.	.	8eJ
=30	=30	=30	=30	=30	=30	=30	=30	=30
[0FF	1.C	0r	0F	2r	1r	4c]	0f	1f
.	.	.	.	.	.	4B-	.	.
.	.	.	.	2.A	.	4A	.	.
.	.	.	.	.	.	4G	.	.
.	.	.	.	.	1F	1F	.	1cc
.	.	.	.	4B-	.	.	.	.
.	[2AA	.	.	2c	.	.	.	.
=31	=31	=31	=31	=31	=31	=31	=31	=31
0FF]	4AA]	1F	0C	2F	1c	0A	0r	4cc
.	4BB-	.	.	.	.	.	.	4b-
.	2C	.	.	1f	.	.	.	4a
.	.	.	.	.	.	.	.	4g
.	2AA	[1c	.	.	4c	.	.	1a
.	.	.	.	.	4B-	.	.	.
.	2FF	.	.	4e	4A	.	.	.
.	.	.	.	4d	4G	.	.	.
=32	=32	=32	=32	=32	=32	=32	=32	=32
2.FF	1C	0c]	1F	0c	1A	1r	0r	2f
.	.	.	.	.	.	.	.	[2cc
4GG	.	.	.	.	.	.	.	.
4AA	[1FF	.	1c	.	1F	[1c	.	4cc]
4BB-	.	.	.	.	.	.	.	4b-
2C	.	.	.	.	.	.	.	4a
.	.	.	.	.	.	.	.	4g
=33	=33	=33	=33	=33	=33	=33	=33	=33
2FF	0FF]	1A	4c	0C	2r	1c]	1f	1f
.	.	.	4B-	.	.	.	.	.
1F	.	.	4A	.	1c	.	.	.
.	.	.	4G	.	.	.	.	.
.	.	1F	2A	.	.	1c	[1cc	1r
2F	.	.	[2f	.	[2c	.	.	.
=34	=34	=34	=34	=34	=34	=34	=34	=34
1C	0C	0G	2f]	1r	2c]	0c	0cc]	1g
.	.	.	4e	.	4B-	.	.	.
.	.	.	4d	.	4A	.	.	.
1r	.	.	2.e	[1C	1G	.	.	1g
.	.	.	8dL	.	.	.	.	.
.	.	.	8eJ	.	.	.	.	.
=35	=35	=35	=35	=35	=35	=35	=35	=35
1C	1FF	0A	1f	1C]	0F	2r	1a	2.cc
.	.	.	.	.	.	1F	.	.
.	.	.	.	.	.	.	.	4b-
1FF	1F	.	1r	1A	.	.	1f	4a
.	.	.	.	.	.	.	.	4g
.	.	.	.	.	.	[2c	.	[2f
=36	=36	=36	=36	=36	=36	=36	=36	=36
0C	1C	0r	1c	1G	1r	2c]	0g	2f]
.	.	.	.	.	.	4B-	.	4e
.	.	.	.	.	.	4A	.	4d
.	2r	.	1c	1G	1c	2G	.	1e
.	[2C	.	.	.	.	[2c	.	.
=37	=37	=37	=37	=37	=37	=37	=37	=37
0FF	2C]	0r	0A	0F	2.c	4c]	0a	0f
.	.	.	.	.	.	4B-	.	.
.	2.F	.	.	.	.	4A	.	.
.	.	.	.	.	4B-	4G	.	.
.	.	.	.	.	4A	1F	.	.
.	4E	.	.	.	4G	.	.	.
.	4D	.	.	.	4F	.	.	.
.	4C	.	.	.	4E	.	.	.
=38	=38	=38	=38	=38	=38	=38	=38	=38
1r	4BB-	0B-	0r	0r	4D	0r	0r	0g
.	4AA	.	.	.	4C	.	.	.
.	4GG	.	.	.	1F	.	.	.
.	4FF	.	.	.	.	.	.	.
1BB-	1GG	.	.	.	.	.	.	.
.	.	.	.	.	2E	.	.	.
=39	=39	=39	=39	=39	=39	=39	=39	=39
1C	0FF	1A	0C	2r	0F	0c	0r	0a
.	.	.	.	1c	.	.	.	.
1AA	.	1F	.	.	.	.	.	.
.	.	.	.	[2f	.	.	.	.
=40	=40	=40	=40	=40	=40	=40	=40	=40
0GG	1r	0G	0G	2f]	0r	1B-	0b-	0r
.	.	.	.	4e	.	.	.	.
.	.	.	.	4d	.	.	.	.
.	1G	.	.	2.e	.	1G	.	.
.	.	.	.	8dL	.	.	.	.
.	.	.	.	8eJ	.	.	.	.
=41	=41	=41	=41	=41	=41	=41	=41	=41
0D	1D	0F	0r	1f	1F	2A	1a	0f
.	.	.	.	.	.	2F	.	.
.	1F	.	.	1d	1A	[1f	1f	.
=42	=42	=42	=42	=42	=42	=42	=42	=42
1E	0C	1r	1r	1c	0c	2f]	0g	0cc
.	.	.	.	.	.	4e	.	.
.	.	.	.	.	.	4d	.	.
1E	.	1C	1C	2r	.	1e	.	.
.	.	.	.	2C	.	.	.	.
=43	=43	=43	=43	=43	=43	=43	=43	=43
2C	[0FF	1.F	1c	2C	2.F	2f	0f	1a
2.AA	.	.	.	2C	.	1c	.	.
.	.	.	.	.	4G	.	.	.
.	.	.	1A	2F	2A	.	.	2r
4BB-	.	.	.	.	.	.	.	.
2C	.	2C	.	2F	2F	[2A	.	[2cc
=44	=44	=44	=44	=44	=44	=44	=44	=44
2AA	0FF]	2F	1c	1C	1.c	2A]	1r	2cc]
1C	.	2G	.	.	.	2.F	.	1a
.	.	1A	1F	1c	.	.	1c	.
.	.	.	.	.	.	4G	.	.
[2AA	.	.	.	.	[2F	4A	.	[2cc
.	.	.	.	.	.	4B-	.	.
=45	=45	=45	=45	=45	=45	=45	=45	=45
4AA]	1FF	1F	2r	2A	2F]	1c	1.f	4cc]
4BB-	.	.	.	.	.	.	.	4b-
2C	.	.	2.F	2A	2.c	.	.	4a
.	.	.	.	.	.	.	.	4g
[1FF	1F	1r	.	2c	.	1r	.	1a
.	.	.	4G	.	4B-	.	.	.
.	.	.	4A	2c	4A	.	2c	.
.	.	.	4B-	.	4G	.	.	.
=46	=46	=46	=46	=46	=46	=46	=46	=46
1FF]	1C	0r	1c	1A	2F	0r	2f	0r
.	.	.	.	.	2.c	.	2g	.
[1C	[1FF	.	1A	1r	.	.	1a	.
.	.	.	.	.	4B-	.	.	.
.	.	.	.	.	4A	.	.	.
.	.	.	.	.	4G	.	.	.
=47	=47	=47	=47	=47	=47	=47	=47	=47
1C]	1FF]	1c	0r	1F	1A	1f	1f	1a
1r	1r	2B-	.	2G	1r	2e	1r	2g
.	.	[2A	.	2D	.	[2d	.	[2f
=48	=48	=48	=48	=48	=48	=48	=48	=48
0r	0r	2A]	0r	2F	0r	2d]	0r	2f]
.	.	2G	.	2C	.	2c	.	2.e
.	.	2G	.	1D	.	2c	.	.
.	.	.	.	.	.	.	.	4d
.	.	2F	.	.	.	2Bni	.	4d
.	.	.	.	.	.	.	.	8cL
.	.	.	.	.	.	.	.	8dJ
=49	=49	=49	=49	=49	=49	=49	=49	=49
1C	2r	1G	2.G	1C	1c	1c	1cc	1e
.	1G	.	.	.	.	.	.	.
.	.	.	4A	.	.	.	.	.
2FF	.	1r	4B-	1r	2d	1r	2b-	1r
.	.	.	4c	.	.	.	.	.
2F	2D	.	2d	.	2f	.	[2a	.
=50	=50	=50	=50	=50	=50	=50	=50	=50
2C	2G	0r	4c	0r	2e	0r	2a]	0r
.	.	.	4B-	.	.	.	.	.
2E	2C	.	4A	.	2c	.	2g	.
.	.	.	4G	.	.	.	.	.
1D	1F	.	1A	.	1d	.	2g	.
.	.	.	.	.	.	.	2f#Xi	.
=51	=51	=51	=51	=51	=51	=51	=51	=51
1GG	1D	0r	1G	0r	1B-	0r	1g	1r
1r	1r	.	1r	.	1r	.	1r	2r
.	.	.	.	.	.	.	.	[2cc
=52	=52	=52	=52	=52	=52	=52	=52	=52
!	!LO:TX:Z=24:t=MS&colon; m. 52, 3rd	!	!	!	!	!	!	!
!	!LO:TX:Z=6:t=note&colon; g	!	!	!	!	!	!	!
2r	1D	0r	0r	2.G	0r	1d	0r	2cc]
1G	.	.	.	.	.	.	.	2.b-
.	.	.	.	4A	.	.	.	.
.	2GG	.	.	4B-	.	2d	.	.
.	.	.	.	4c	.	.	.	4a
2D	2F	.	.	2d	.	2f	.	[2a
=53	=53	=53	=53	=53	=53	=53	=53	=53
2G	2C	0r	0r	4c	0r	2e-X	0r	2a]
.	.	.	.	4B-	.	.	.	.
2C	2E-Xi	.	.	4A	.	2c	.	2g
.	.	.	.	4G	.	.	.	.
1F	1D	.	.	1A	.	1d	.	1a
=54	=54	=54	=54	=54	=54	=54	=54	=54
2D	2GG	1G	0r	0G	0r	2B-	0r	1g
1E	2.C	.	.	.	.	1G	.	.
.	.	[1c	.	.	.	.	.	2e
.	4BB-	.	.	.	.	.	.	.
2C	4AA	.	.	.	.	[2c	.	[2a
.	4GG	.	.	.	.	.	.	.
=55	=55	=55	=55	=55	=55	=55	=55	=55
2F	2FF	2c]	0r	1r	0r	2c]	0r	2a]
2.D	2BB-	2B-	.	.	.	2F	.	1g
.	2FF	2A	.	1C	.	1A	.	.
4C	.	.	.	.	.	.	.	.
[2C	2AA	2F	.	.	.	.	.	[2f
=56	=56	=56	=56	=56	=56	=56	=56	=56
2C]	1GG	1G	0r	1G	1r	1B-	1g	2f]
2BB-	.	.	.	.	.	.	.	2e
2C	1FF	1A	.	2C	2.A	1A	[1cc	1f
2C	.	.	.	[2A	.	.	.	.
.	.	.	.	.	4B-	.	.	.
=57	=57	=57	=57	=57	=57	=57	=57	=57
2AA	0r	0r	0r	2A]	2c	0r	2cc]	0r
2BB-	.	.	.	2.G	2d	.	2b-	.
2FF	.	.	.	.	2B-	.	2a	.
.	.	.	.	4F	.	.	.	.
2AA	.	.	.	[2F	2c	.	2f	.
=58	=58	=58	=58	=58	=58	=58	=58	=58
1GG	1r	0r	1r	2F]	1B-	0r	1g	0r
.	.	.	.	2E	.	.	.	.
[1FF	2r	.	2.c	[1F	[1A	.	1a	.
.	[2F	.	.	.	.	.	.	.
.	.	.	4B-	.	.	.	.	.
=59	=59	=59	=59	=59	=59	=59	=59	=59
1FF]	4F]	0r	4A	1F]	1A]	0r	0r	0r
.	4E	.	4G	.	.	.	.	.
.	4D	.	4F	.	.	.	.	.
.	4C	.	4E	.	.	.	.	.
1r	4BB-	.	4D	1r	1r	.	.	.
.	4AA	.	4C	.	.	.	.	.
.	[2C	.	[2A	.	.	.	.	.
=60	=60	=60	=60	=60	=60	=60	=60	=60
1r	2C]	0r	2A]	0r	0r	0r	0r	0r
.	2BB-	.	1G	.	.	.	.	.
[1C	2AA	.	.	.	.	.	.	.
.	2FF	.	[2F	.	.	.	.	.
=61	=61	=61	=61	=61	=61	=61	=61	=61
0C]	1C	0r	4F]	0r	0r	2r	0r	2.cc
.	.	.	4E	.	.	.	.	.
.	.	.	4E	.	.	2.c	.	.
.	.	.	8DL	.	.	.	.	4b-
.	.	.	8EJ	.	.	.	.	.
.	[1FF	.	[1F	.	.	.	.	4a
.	.	.	.	.	.	4B-	.	4g
.	.	.	.	.	.	4A	.	4f
.	.	.	.	.	.	4G	.	4e
=62	=62	=62	=62	=62	=62	=62	=62	=62
1F	1FF]	0r	1F]	0r	0r	4A	0r	4d
.	.	.	.	.	.	4G	.	4c
.	.	.	.	.	.	2.c	.	1a
2FF	1r	.	1r	.	.	.	.	.
.	.	.	.	.	.	4A	.	.
2GG	.	.	.	.	.	2B-	.	[2g
=63	=63	=63	=63	=63	=63	=63	=63	=63
2AA	1r	1r	0r	0r	0r	1F	0r	4g]
.	.	.	.	.	.	.	.	4f
2BB-	.	.	.	.	.	.	.	2.f
1GG	1G	1B-	.	.	.	1G	.	.
.	.	.	.	.	.	.	.	4e
.	.	.	.	.	.	.	.	4e
.	.	.	.	.	.	.	.	8dL
.	.	.	.	.	.	.	.	8eJ
=64	=64	=64	=64	=64	=64	=64	=64	=64
1.D	2D	1A	0r	0r	0r	1F	0r	1f
.	1F	.	.	.	.	.	.	.
.	.	2F	.	.	.	1r	.	1r
2C	2E	[2G	.	.	.	.	.	.
=65	=65	=65	=65	=65	=65	=65	=65	=65
2BB-	2D	2G]	0r	1r	0r	0r	1r	0r
2AA	1C	1F	.	.	.	.	.	.
1GG	.	.	.	1G	.	.	1b-	.
.	2BB-	2E	.	.	.	.	.	.
=66	=66	=66	=66	=66	=66	=66	=66	=66
1.FF	2C	1F	1r	2A	[0c	0C	1a	1cc
.	1F	.	.	2F	.	.	.	.
.	.	1r	1C	1c	.	.	2f	1cc
2C	2E	.	.	.	.	.	[2g	.
=67	=67	=67	=67	=67	=67	=67	=67	=67
2AA	1A	0r	1C	1F	0c]	0c	2g]	1f
2FF	.	.	.	.	.	.	1f	.
1C	1G	.	1C	2r	.	.	.	1g
.	.	.	.	[2c	.	.	2e	.
=68	=68	=68	=68	=68	=68	=68	=68	=68
2FF	2F	1r	2.F	4c]	1c	0A	1f	2a
.	.	.	.	4B-	.	.	.	.
1.F	1A	.	.	4A	.	.	.	1cc
.	.	.	4G	4G	.	.	.	.
.	.	1F	4A	1F	1c	.	1r	.
.	.	.	4B-	.	.	.	.	.
.	4G	.	4c	.	.	.	.	4b-
.	4F	.	4d	.	.	.	.	4a
=69	=69	=69	=69	=69	=69	=69	=69	=69
2C	2G	1c	2e	2r	1c	0r	0r	2g
1.F	2A	.	2f	2F	.	.	.	2.cc
.	2F	2A	2c	2c	2c	.	.	.
.	.	.	.	.	.	.	.	4f
.	2D	2F	[2f	2d	2d	.	.	2a
=70	=70	=70	=70	=70	=70	=70	=70	=70
1C	1E	1G	2f]	1c	2e	0C	1r	1g
.	.	.	2e	.	2c	.	.	.
1FF	2C	1A	2f	2A	4c	.	1f	[1f
.	.	.	.	.	4B-	.	.	.
.	[2F	.	[2F	[2c	4A	.	.	.
.	.	.	.	.	4G	.	.	.
=71	=71	=71	=71	=71	=71	=71	=71	=71
2r	2F]	0r	4F]	4c]	2A	1F	1cc	1f]
.	.	.	4G	4B-	.	.	.	.
1FF	1C	.	4A	4A	1F	.	.	.
.	.	.	4B-	4G	.	.	.	.
.	.	.	1c	2F	.	1r	2a	1r
2AA	2AA	.	.	2C	[2f	.	2f	.
=72	=72	=72	=72	=72	=72	=72	=72	=72
1GG	1BB-	1B-	1r	1G	2f]	1G	1g	1r
.	.	.	.	.	2e	.	.	.
4FF	1C	1A	1r	1r	1f	2C	1a	1r
4GG	.	.	.	.	.	.	.	.
4AA	.	.	.	.	.	[2c	.	.
4BB-	.	.	.	.	.	.	.	.
=73	=73	=73	=73	=73	=73	=73	=73	=73
2C	2AA	2F	0r	0r	0r	2c]	0r	0r
1D	2BB-	1G	.	.	.	2B-	.	.
.	2FF	.	.	.	.	2A	.	.
[2C	2AA	[2F	.	.	.	2F	.	.
=74	=74	=74	=74	=74	=74	=74	=74	=74
2C]	1GG	2F]	0r	1r	1r	1G	1b-	1r
2BB-	.	2E	.	.	.	.	.	.
[1C	[1FF	1F	.	1F	1A	2A	1a	[1cc
.	.	.	.	.	.	[2F	.	.
=75	=75	=75	=75	=75	=75	=75	=75	=75
0C_	2FF]	1c	2r	1r	1r	2F]	2f	1cc]
.	2C	.	2G	.	.	2E	1g	.
.	1FF	2A	1c	1F	1A	2F	.	1cc
.	.	2F	.	.	.	2A	[2f	.
=76	=76	=76	=76	=76	=76	=76	=76	=76
0C_	1C	1G	2.c	1r	1r	1G	2f]	1.cc
.	.	.	.	.	.	.	2e	.
.	.	.	4B-	.	.	.	.	.
.	1FF	1A	4A	1F	1A	1F	1f	.
.	.	.	4G	.	.	.	.	.
.	.	.	[2F	.	.	.	.	8cc/L
.	.	.	.	.	.	.	.	8b-/
.	.	.	.	.	.	.	.	8a/
.	.	.	.	.	.	.	.	8g/J
=77	=77	=77	=77	=77	=77	=77	=77	=77
1C]	1r	0r	2F]	1r	1r	1C	1cc	2a
.	.	.	2E	.	.	.	.	2.g
2FF	2r	.	1F	1A	1F	2F	2a	.
.	.	.	.	.	.	.	.	4f
2AA	[2C	.	.	.	.	2C	2f	[2f
=78	=78	=78	=78	=78	=78	=78	=78	=78
1GG	2C]	1B-	1r	1r	1r	1G	1g	2f]
.	2BB-	.	.	.	.	.	.	2e
2FF	2C	2A	2r	1A	1F	1C	1a	1f
2C	2AA	2F	[2f	.	.	.	.	.
=79	=79	=79	=79	=79	=79	=79	=79	=79
2D	2BB-	1G	2f]	1r	1r	1G	0r	2r
2E	2C	.	2e	.	.	.	.	2.cc
1C	1FF	1F	1f	1A	1C	2A	.	.
.	.	.	.	.	.	.	.	4b-
.	.	.	.	.	.	[2F	.	4a
.	.	.	.	.	.	.	.	4g
=80	=80	=80	=80	=80	=80	=80	=80	=80
0r	2BB-	0r	0r	1B-	1D	2F]	1b-	2f
.	2GG	.	.	.	.	1d	.	2.g
.	2D	.	.	2F	1r	.	2a	.
.	.	.	.	.	.	.	.	4f
.	2F	.	.	2A	.	[2c	2f	[2f
=81	=81	=81	=81	=81	=81	=81	=81	=81
0r	1C	1C	2.c	2G	1.C	4c]	1g	2f]
.	.	.	.	.	.	4B-	.	.
.	.	.	.	2.c	.	4A	.	2e
.	.	.	4B-	.	.	4G	.	.
.	1FF	2.F	4A	.	.	1A	1f	1f
.	.	.	4G	4B-	.	.	.	.
.	.	.	2F	4A	[2F	.	.	.
.	.	4C	.	4G	.	.	.	.
=82	=82	=82	=82	=82	=82	=82	=82	=82
1FF	1r	2.F	2c	2A	4F]	1r	0r	2r
.	.	.	.	.	4G	.	.	.
.	.	.	2.F	2F	2A	.	.	2c
.	.	4G	.	.	.	.	.	.
1r	1FF	2A	.	1c	2F	2D	.	4f
.	.	.	4G	.	.	.	.	4e
.	.	2F	4A	.	[2c	[2F	.	4f
.	.	.	4B-	.	.	.	.	4g
=83	=83	=83	=83	=83	=83	=83	=83	=83
1FF	1r	2r	2c	1F	4c]	4F]	1c	2a
.	.	.	.	.	4B-	4G	.	.
.	.	2F	2c	.	4A	2A	.	2f
.	.	.	.	.	4G	.	.	.
1r	1FF	4F	1A	1C	2A	2F	2.f	[1cc
.	.	4E	.	.	.	.	.	.
.	.	4F	.	.	2F	2r	.	.
.	.	4G	.	.	.	.	4c	.
=84	=84	=84	=84	=84	=84	=84	=84	=84
1FF	1C	2A	1r	1r	2r	0ryy	2.f	0cc]
.	.	2F	.	.	2c	.	.	.
.	.	.	.	.	.	.	4g	.
1C	2FF	1r	[1c	1C	2c	.	2a	.
.	2FF	.	.	.	2c	.	2f	.
=85	=85	=85	=85	=85	=85	=85	=85	=85
2FF	2C	0r	0c_	1r	1A	0ryy	2r	1cc
2FF	2C	.	.	.	.	.	2f	.
2C	1FF	.	.	1C	1r	.	4f	2.cc
.	.	.	.	.	.	.	4e	.
2C	.	.	.	.	.	.	4f	.
.	.	.	.	.	.	.	4g	4b-
=86	=86	=86	=86	=86	=86	=86	=86	=86
1FF	2r	1c	1c]	1r	0c	0ryy	2a	4a
.	.	.	.	.	.	.	.	4g
.	2C	.	.	.	.	.	2f	2.a
1r	1E	1G	1r	1C	.	.	1r	.
.	.	.	.	.	.	.	.	4g
.	.	.	.	.	.	.	.	[2g
=87	=87	=87	=87	=87	=87	=87	=87	=87
1r	1D	2A	0r	1F	1d	0ryy	0r	2g]
.	.	2A	.	.	.	.	.	2f#Xi
1GG	2GG	1G	.	2.D	1B-	.	.	1g
.	2BB-	.	.	.	.	.	.	.
.	.	.	.	4E	.	.	.	.
=88	=88	=88	=88	=88	=88	=88	=88	=88
1C	1FF	2r	0C	2F	1A	0ryy	1cc	1r
.	.	2F	.	1C	.	.	.	.
1C	1r	2.c	.	.	1r	.	1g	1g
.	.	.	.	[2c	.	.	.	.
.	.	4B-	.	.	.	.	.	.
=89	=89	=89	=89	=89	=89	=89	=89	=89
2FF	1C	2A	0c	2c]	1c	0ryy	2a	1.cc
1F	.	2F	.	2C	.	.	2a	.
.	1C	1G	.	1c	1r	.	1g	.
2E	.	.	.	.	.	.	.	2cc
=90	=90	=90	=90	=90	=90	=90	=90	=90
1F	2FF	1A	0r	0C	1c	0ryy	2r	2a
.	1F	.	.	.	.	.	2f	2f
1C	.	1r	.	.	1r	.	2.cc	1g
.	2E	.	.	.	.	.	.	.
.	.	.	.	.	.	.	4b-	.
=91	=91	=91	=91	=91	=91	=91	=91	=91
2FF	1F	1r	0r	0r	2r	0ryy	2a	1a
2AA	.	.	.	.	1F	.	2f	.
1GG	1r	1B-	.	.	.	.	1g	1r
.	.	.	.	.	2E	.	.	.
=92	=92	=92	=92	=92	=92	=92	=92	=92
2FF	0r	1A	0r	0r	1F	0ryy	1a	0r
1D	.	.	.	.	.	.	.	.
.	.	2F	.	.	1r	.	1r	.
2C	.	[2G	.	.	.	.	.	.
=93	=93	=93	=93	=93	=93	=93	=93	=93
2BB-	0r	2G]	0r	1r	0r	0ryy	1r	0r
2AA	.	1F	.	.	.	.	.	.
1GG	.	.	.	1G	.	.	1b-	.
.	.	2E	.	.	.	.	.	.
=94	=94	=94	=94	=94	=94	=94	=94	=94
1.FF	2r	1F	1r	2A	[0c	0ryy	1a	0cc
.	1F	.	.	2F	.	.	.	.
.	.	[1C	1C	1c	.	.	2f	.
2C	2E	.	.	.	.	.	[2g	.
=95	=95	=95	=95	=95	=95	=95	=95	=95
2AA	1A	0C]	1C	1r	0c_	0ryy	2g]	1f
2FF	.	.	.	.	.	.	1f	.
1C	1G	.	1C	2r	.	.	.	1g
.	.	.	.	[2c	.	.	2e	.
=96	=96	=96	=96	=96	=96	=96	=96	=96
2.FF	2F	[0C	0F	4c]	0c_	0ryy	1f	2a
.	.	.	.	4B-	.	.	.	.
.	2.FF	.	.	4A	.	.	.	2.cc
4GG	.	.	.	4G	.	.	.	.
4AA	.	.	.	2F	.	.	[1c	.
4BB-	4GG	.	.	.	.	.	.	4b-
2C	4AA	.	.	[2c	.	.	.	4a
.	4BB-	.	.	.	.	.	.	4g
=97	=97	=97	=97	=97	=97	=97	=97	=97
4FF	1C	0C_	2r	4c]	0c]	0ryy	0c]	4a
4GG	.	.	.	4B-	.	.	.	4g
4AA	.	.	1C	4A	.	.	.	1cc
4BB-	.	.	.	4G	.	.	.	.
4C	2FF	.	.	2A	.	.	.	.
4D	.	.	.	.	.	.	.	.
4E	[2C	.	[2c	2G	.	.	.	4b-
4F	.	.	.	.	.	.	.	4a
=98	=98	=98	=98	=98	=98	=98	=98	=98
4G	2C]	0C]	2c]	0c	0C	0ryy	[0c	2g
4C	.	.	.	.	.	.	.	.
1F	2FF	.	4B-	.	.	.	.	2f
.	.	.	4A	.	.	.	.	.
.	1C	.	1G	.	.	.	.	1g
2E	.	.	.	.	.	.	.	.
=99	=99	=99	=99	=99	=99	=99	=99	=99
2F	0FF	0r	0F	0A	0F	0ryy	0c_	2r
1FF	.	.	.	.	.	.	.	2.c
.	.	.	.	.	.	.	.	4d
[2C	.	.	.	.	.	.	.	4e
.	.	.	.	.	.	.	.	4f
=100	=100	=100	=100	=100	=100	=100	=100	=100
2C]	1r	[0c	0c	1r	0C	0ryy	0c]	4g
.	.	.	.	.	.	.	.	4c
2FF	.	.	.	.	.	.	.	1f
1C	2r	.	.	1G	.	.	.	.
.	[2C	.	.	.	.	.	.	2e
=101	=101	=101	=101	=101	=101	=101	=101	=101
0FF	2C]	0c_	0A	2A	0F	0ryy	0r	4f
.	.	.	.	.	.	.	.	4g
.	2FF	.	.	2.F	.	.	.	4a
.	.	.	.	.	.	.	.	4b-
.	2.F	.	.	.	.	.	.	2cc
.	.	.	.	4G	.	.	.	.
.	.	.	.	4A	.	.	.	[2f
.	4G	.	.	4B-	.	.	.	.
=102	=102	=102	=102	=102	=102	=102	=102	=102
1F	2A	0c_	0r	1c	0r	0ryy	[0cc	2f]
.	1FF	.	.	.	.	.	.	1cc
[1C	.	.	.	2C	.	.	.	.
.	2C	.	.	[2c	.	.	.	4b-
.	.	.	.	.	.	.	.	4a
=103	=103	=103	=103	=103	=103	=103	=103	=103
2C]	2E	0c]	[0cl	2c]	[0Cl	0ryy	0cc_	2g
2FF	2F	.	.	4B-	.	.	.	2f
.	.	.	.	4A	.	.	.	.
[1C	1C	.	.	1G	.	.	.	1g
=104	=104	=104	=104	=104	=104	=104	=104	=104
1C]	[0FFl	[0Al	0c_	[0Fl	0C_	0ryy	0cc]	1r
1FF	.	.	.	.	.	.	.	1cc
=105	=105	=105	=105	=105	=105	=105	=105	=105
0AAl	0FF]	0A]	0c]	0F]	0C]	0ryy	0al	4cc
.	.	.	.	.	.	.	.	4b-
.	.	.	.	.	.	.	.	4a
.	.	.	.	.	.	.	.	4g
.	.	.	.	.	.	.	.	1al
==	==	==	==	==	==	==	==	==
*-	*-	*-	*-	*-	*-	*-	*-	*-
!!!RDF**kern: l=long note in original notation
!!!system-decoration: [(s1,s2,s3,s4)][([(s5,s6,s7)][(s8,s9)])]
!!!RDF**kern: i = editorial accidental
!!!ENC: Megan K. Eagen 2013/01/27, Jesse Rodin 8/24/2013
!!!END: 2013/01/27/
!!!EED: Jesse Rodin
!!!EEV: 2020/10/23/
!!attribution-level@Jos: 4a (the rest [double question mark])
!!!ONB: Translated from MusicXML and edited on 2020/10/23/ by Craig Sapp
!!muse2ps: C^@{COA}?\n@{SCT}^i2I150v95,95,95,95,95,95,95,95,150z16c110
